X:238
T:Arcadia. (p)1686.PLFD1.238
M:4/4
L:1/8
Q:1/2=100
S:Playford, Dancing Master,7th Ed.,1686
O:England;London
H:1686.
Z:Chris Partington.
K:Bb
f2|d2B2c2A2|B3AG2AB|c2A2B2c2|A2F4A2|
B3B/B/B2B2|c3c/c/c2c2|d=ef2f3e|1f6:|2f8|
|:f3f/f/f2f2|f3f/f/f2f2|g3fgab2|a3gf2d2|
g3g/g/g2g2|a3a/a/a2gf|b2b2b3a|b8:|
